X: 377
T:Vive le roy
N: Derived from Jos2836-Vive_le_roy.krn
C: Josquin des Prez
%%abc-version 2.0
%%abcx-abcm2ps-target-version 5.9.1 (29 Sep 2008)
%%abc-creator hum2abc beta
%%abcx-conversion-date 2019/02/12 16:15:55
%%abc-edited-by Jesse Rodin
%%abc-edited-by Will Watson 18/08/2011
%%abcx-initial-encoding-date 2011/08/18/
%%humdrum-veritas 192524650
%%humdrum-veritas-data 3629061066
%%linebreak <none>
%%barnumbers 0
L: 1/4
M: 2/1
Q: 1/2=120
%%staves [1 2 3 4]
V: 1 clef=treble
V: 2 clef=treble-8
V: 3 clef=treble-8
V: 4 clef=bass
K: C
[V:1] z8 | 
[V:2] d4d2d2 | 
[V:3] z8 | 
[V:4] z4G,4 | 
[V:1] G4G2G2 | 
[V:2] d3BB4 | 
[V:3] z8 | 
[V:4] G,2G,2G,3E, | 
[V:1] G3EE4 | 
[V:2] z2e2e2e2 | 
[V:3] z8 | 
[V:4] E,4z2A,2 | 
[V:1] z2A2A2A2 | 
[V:2] c3AA4 | 
[V:3] z8 | 
[V:4] A,2A,2F,3D, | 
[V:1] F3DD4 | 
[V:2] z2d2d2d2 | 
[V:3] z8 | 
[V:4] D,4z2G,2 | 
[V:1] z2G2G2G2 | 
[V:2] B3GG4 | 
[V:3] z8 | 
[V:4] G,2G,2E,3C, | 
[V:1] E3CC4 | 
[V:2] z2g2g2g2 | 
[V:3] c8 | 
[V:4] C,4z2C2 | 
[V:1] z2c2c2c2 | 
[V:2] g4z2e2 | 
[V:3] e8 | 
[V:4] C2C2C4 | 
[V:1] c4z2A2 | 
[V:2] e2e2a2a2 | 
[V:3] c8 | 
[V:4] z2A,2A,2A,2 | 
[V:1] A2A2d2d2 | 
[V:2] f2f2d4 | 
[V:3] d8 | 
[V:4] D2D2B,2B,2 | 
[V:1] B2B2G4 | 
[V:2] (3d2d2d2B3G | 
[V:3] d8 | 
[V:4] G,4(3G,2G,2G,2 | 
[V:1] (3G2G2G2E3C | 
[V:2] G4z2g2- | 
[V:3] g8 | 
[V:4] E,3C,C,4 | 
[V:1] C4z2c2- | 
[V:2] ggg2e2e2 | 
[V:3] e8 | 
[V:4] z2C3CC2 | 
[V:1] ccc2A2A2 | 
[V:2] a4f4 | 
[V:3] z8 | 
[V:4] A,2A,2D4 | 
[V:1] d4B4 | 
[V:2] z2d2(3g2g2g2 | 
[V:3] z8 | 
[V:4] B,4z2G,2 | 
[V:1] z2G2(3c2c2c2 | 
[V:2] e2e2a4 | 
[V:3] z8 | 
[V:4] (3C2C2C2A,2A,2 | 
[V:1] A2A2d4 | 
[V:2] f4z2d2 | 
[V:3] z8 | 
[V:4] D4B,4 | 
[V:1] B4z2G2 | 
[V:2] g2g2e2e2 | 
[V:3] z8 | 
[V:4] z2G,2C2C2 | 
[V:1] c2c2A2A2 | 
[V:2] a4f4 | 
[V:3] z8 | 
[V:4] A,2A,2D4 | 
[V:1] d4B4 | 
[V:2] z2d3dd2 | 
[V:3] G8 | 
[V:4] B,4z2G,2- | 
[V:1] z2G3GG2 | 
[V:2] d4z2G2- | 
[V:3] B8 | 
[V:4] G,G,G,2G,4 | 
[V:1] G4z2C2- | 
[V:2] GGG2g2g2 | 
[V:3] G8 | 
[V:4] z2C,3C,C,2 | 
[V:1] CCC2c2c2 | 
[V:2] e2e2c4- | 
[V:3] A8 | 
[V:4] C2C2A,2A,2 | 
[V:1] A2A2F4- | 
[V:2] c2BAA4- | 
[V:3] A8 | 
[V:4] F,6E,D, | 
[V:1] F2EDD4 | 
[V:2] A2D3DD2 | 
[V:3] d8 | 
[V:4] D,4z2G,,2- | 
[V:1] z2G,3G,G,2 | 
[V:2] D4z2d2 | 
[V:3] B8 | 
[V:4] G,,G,,G,,2G,,4 | 
[V:1] G,4z2G2 | 
[V:2] d2B2G4 | 
[V:3] z8 | 
[V:4] z2G,2G,2E,2 | 
[V:1] G2E2C4 | 
[V:2] z2c2A2A2 | 
[V:3] z8 | 
[V:4] C,4z2F,2 | 
[V:1] z2F2D2D2 | 
[V:2] d2d2B3G | 
[V:3] z8 | 
[V:4] D,2D,2G,2G,2 | 
[V:1] G2G2E3C | 
[V:2] G4z2c2 | 
[V:3] z8 | 
[V:4] E,3C,C,4 | 
[V:1] C4z2F2 | 
[V:2] A2A2d2d2 | 
[V:3] z8 | 
[V:4] z2F,2D,2D,2 | 
[V:1] D2D2G2G2 | 
[V:2] B3GG4 | 
[V:3] z8 | 
[V:4] G,2G,2E,3C, | 
[V:1] E3CC4 | 
[V:2] z2g3gg2 | 
[V:3] c8 | 
[V:4] C,4z2C2- | 
[V:1] z2c3cc2 | 
[V:2] g4z2e2 | 
[V:3] e8 | 
[V:4] CCC2C4 | 
[V:1] c4z2A2 | 
[V:2] e2c2A2A2 | 
[V:3] c8 | 
[V:4] z2A,2A,2F,2 | 
[V:1] A2F2D2D2 | 
[V:2] a2a2f3d | 
[V:3] d8 | 
[V:4] D,2D,2D2D2 | 
[V:1] d2d2B3G | 
[V:2] d4z2G2- | 
[V:3] d8 | 
[V:4] B,3G,G,4 | 
[V:1] G4z2C2- | 
[V:2] GGG2G4 | 
[V:3] g8 | 
[V:4] z2C,3C,C,2 | 
[V:1] CCC2C4 | 
[V:2] z2g3gg2 | 
[V:3] e8- | 
[V:4] C,4z2C2- | 
[V:1] z2c3cc2 | 
[V:2] g8- | 
[V:3] e8- | 
[V:4] CCC2C4- | 
[V:1] c8 |]  
[V:2] g8 |]  
[V:3] e8 |]  
[V:4] C8 |]  



